assets/Person supervillain/Medium-Light/Flat/person_supervillain_flat_medium-light.svg

<svg width="32" height="32" viewBox="0 0 32 32" fill="none" xmlns="http://www.w3.org/2000/svg">
<path d="M20.48 14.67C20.64 14.32 20.76 13.94 20.81 13.54L20.9 12.09C21.21 12.07 21.51 11.96 21.75 11.78V12.71C21.75 13.56 21.25 14.33 20.48 14.67Z" fill="#FFF9BA"/>
<path d="M10.2002 11.79C10.4602 11.97 10.7702 12.08 11.1102 12.09L11.2002 13.54C11.2502 13.95 11.3702 14.34 11.5402 14.7C10.7402 14.37 10.2002 13.59 10.2002 12.71V11.79Z" fill="#FFF9BA"/>
<path d="M6 16.9199C6 16.9199 2 22 2 30H5L16 27L27 30H30C30 21.99 26 16.9199 26 16.9199H6Z" fill="#533566"/>
<path d="M16 17C13.24 17 10.69 16.4001 8.77002 18.1901V30.0101H23.23V18.1601C21.31 16.3901 18.74 17 16 17Z" fill="#6B438B"/>
<path d="M15.56 21.32L12 16.01H20L16.47 21.33C16.25 21.65 15.78 21.65 15.56 21.32Z" fill="#C3EF3C"/>
<path d="M14 16.5886C14 17.9143 14.8889 18.75 15.9953 18.75C17.1017 18.75 17.9905 17.9143 18 16.5886V15H14V16.5886Z" fill="#8D65C5"/>
<path d="M5.88889 22.6193L5.85637 22.7005C5.29268 24.3756 5 26.132 5 27.8985V30H9V18C7.59079 19.2386 6.49594 20.8122 5.88889 22.6193Z" fill="#8D65C5"/>
<path d="M26.9997 27.9342C27.0105 26.1519 26.7287 24.3797 26.1651 22.6785C25.5472 20.8456 24.4416 19.2456 23 18V30H26.9889L26.9997 27.9342Z" fill="#8D65C5"/>
<path d="M6.00008 16H14.0001V16.7284C14.0001 18.7599 12.7783 20.5861 10.9406 21.3146C9.7089 21.7968 8.29837 21.3146 7.60304 20.1449L5.55678 16.7387C5.37798 16.3899 5.62261 15.9589 6.00008 16Z" fill="#F92F60"/>
<path d="M25.9765 16H18.0001V16.7284C18.0001 18.7599 19.2219 20.5861 21.0595 21.3146C22.2913 21.7968 23.7018 21.3146 24.3971 20.1449L26.4434 16.7387C26.6222 16.3899 26.354 15.9589 25.9765 16Z" fill="#F92F60"/>
<path d="M12.75 10.625C12.75 11.5225 12.0225 12.25 11.125 12.25C10.2275 12.25 9.5 11.5225 9.5 10.625C9.5 9.72754 10.2275 9 11.125 9C12.0225 9 12.75 9.72754 12.75 10.625Z" fill="#E4B29A"/>
<path d="M22.5 10.625C22.5 11.5225 21.7725 12.25 20.875 12.25C19.9775 12.25 19.25 11.5225 19.25 10.625C19.25 9.72754 19.9775 9 20.875 9C21.7725 9 22.5 9.72754 22.5 10.625Z" fill="#E4B29A"/>
<path d="M17.1025 3.19995H14.874C12.3732 3.19995 10.4875 5.26995 10.7799 7.83995L11.153 13.54C11.4152 15.48 13.079 16.92 15.0555 16.92H16.0033H16.9512C18.9176 16.92 20.5915 15.47 20.8537 13.54L21.2167 7.83995C21.5293 5.37995 19.6033 3.19995 17.1025 3.19995Z" fill="#EEBFAA"/>
<path d="M22.1301 5.24C21.8301 4.73 21.3801 4.37 20.8601 4.19C20.3001 4 19.8101 3.63 19.5001 3.13C19.0901 2.45 18.3501 2 17.5001 2C17.1701 2 16.8601 2.07 16.5801 2.19C16.2001 2.35 15.7601 2.35 15.3801 2.19C15.1001 2.07 14.7901 2 14.4601 2C13.6301 2 12.8901 2.44 12.4801 3.09C12.1501 3.6 11.6701 3.99 11.0901 4.19C10.5501 4.38 10.0801 4.76 9.7901 5.31C9.3701 6.1 9.4501 7.04 9.9301 7.74C10.1101 8 10.2101 8.3 10.2101 8.61V9.11C10.4101 8.97 10.6501 8.87 10.9001 8.83V8.81V8.01C10.9001 6.16 12.4001 4.66 14.2501 4.66H15.5301C15.8001 4.66 16.0501 4.83 16.1501 5.08C16.5501 5.95 17.4201 6.51 18.3701 6.51H19.7701C20.5401 6.54 21.1401 7.17 21.1601 7.93L21.1001 8.84C21.1101 8.84 21.1201 8.84 21.1301 8.85H21.1501C21.3701 8.9 21.5701 8.99 21.7501 9.12V8.61C21.7501 8.3 21.8401 8 22.0201 7.74C22.5301 7.02 22.6001 6.05 22.1301 5.24Z" fill="#FFF9BA"/>
<path d="M15.34 8.60003C15.49 8.82003 15.72 9 16 9C16.28 9 16.54 8.82003 16.68 8.60003C16.92 8.24003 17.28 7.96003 17.72 7.89003L23.04 6.31003C23.37 6.21003 23.64 6.58003 23.45 6.87003L20.02 12.01L19.55 12.7C19.27 13.11 18.68 13.14 18.36 12.76C18.36 12.76 16.62 10.82 16.5 10.5C16.5 10.5 16.2817 9.99446 16 10C15.7239 10.0054 15.5 10.5 15.5 10.5C15.38 10.82 13.66 12.76 13.66 12.76C13.34 13.14 12.75 13.11 12.47 12.7L12 12.01L8.57005 6.87003C8.38005 6.58003 8.65005 6.21003 8.98005 6.31003L14.3 7.89003C14.74 7.96003 15.1 8.24003 15.34 8.60003Z" fill="#533566"/>
<path d="M15.6435 10.1801L15.1492 11.8601C15.0447 12.2001 15.2918 12.5501 15.634 12.5501H16.366C16.7082 12.5501 16.9553 12.2001 16.8508 11.8601L16.3565 10.1801C16.2519 9.81009 15.7576 9.81009 15.6435 10.1801Z" fill="#D19479"/>
<path d="M16.9409 13.4039C16.592 13.5495 16.222 13.6174 15.8732 13.598C15.7569 13.5883 15.704 13.7339 15.7992 13.7921C16.2009 14.0251 16.7083 14.0736 17.1735 13.8795C17.6386 13.6854 17.9241 13.2971 17.9981 12.8701C18.0192 12.7633 17.8606 12.7051 17.7972 12.7924C17.5858 13.0351 17.2898 13.2583 16.9409 13.4039Z" fill="#990838"/>
<path d="M16.125 25.75C17.0225 25.75 17.75 25.0225 17.75 24.125C17.75 23.2275 17.0225 22.5 16.125 22.5C15.2275 22.5 14.5 23.2275 14.5 24.125C14.5 25.0225 15.2275 25.75 16.125 25.75Z" fill="#F92F60"/>
<path d="M17.0522 23.3024C17.2722 23.6024 17.2522 23.9924 17.0022 24.1724C16.7522 24.3524 16.3722 24.2624 16.1522 23.9624C15.9322 23.6624 15.9522 23.2724 16.2022 23.0924C16.4522 22.9124 16.8322 23.0024 17.0522 23.3024Z" fill="#F7A7B8"/>
<path d="M7 16H8C8 15.7222 7.78505 15.5 7.50467 15.5C7.2243 15.5 7 15.7222 7 16Z" fill="#8D65C5"/>
<path d="M9.5 15.5C9.22222 15.5 9 15.7222 9 16H10C10 15.7222 9.77778 15.5 9.5 15.5Z" fill="#8D65C5"/>
<path d="M10 17C10 16.7222 10.2222 16.5 10.5 16.5C10.7778 16.5 11 16.7222 11 17H10Z" fill="#8D65C5"/>
<path d="M8 17H9C9 16.7222 8.78505 16.5 8.50467 16.5C8.2243 16.5 8 16.7222 8 17Z" fill="#8D65C5"/>
<path d="M23 16H22C22 15.7222 22.2222 15.5 22.5 15.5C22.7778 15.5 23 15.7222 23 16Z" fill="#8D65C5"/>
<path d="M24.5 15.5C24.2222 15.5 24 15.7222 24 16H25C25 15.7222 24.7778 15.5 24.5 15.5Z" fill="#8D65C5"/>
<path d="M23 17C23 16.7222 23.2222 16.5 23.5 16.5C23.7778 16.5 24 16.7222 24 17H23Z" fill="#8D65C5"/>
<path d="M21 17H22C22 16.7222 21.7778 16.5 21.5 16.5C21.2222 16.5 21 16.7222 21 17Z" fill="#8D65C5"/>
<path d="M14.59 9.64998C14.35 10.06 13.84 10.28 13.35 10.13C12.84 9.97998 12.53 9.48998 12.58 8.98998C12.59 8.87998 12.7 8.80998 12.81 8.83998L14.47 9.33998C14.6 9.37998 14.66 9.52998 14.59 9.64998Z" fill="#C3EF3C"/>
<path d="M17.3201 9.64998C17.5601 10.06 18.0701 10.28 18.5601 10.13C19.0701 9.97998 19.3801 9.48998 19.3301 8.98998C19.3201 8.87998 19.2101 8.80998 19.1001 8.83998L17.4401 9.33998C17.3101 9.37998 17.2501 9.52998 17.3201 9.64998Z" fill="#C3EF3C"/>
</svg>

<svg xmlns="http://www.w3.org/2000/svg" width="32" height="32" fill="none"><path fill="#FFF9BA" d="M20.48 14.67c.16-.35.28-.73.33-1.13l.09-1.45c.31-.02.61-.13.85-.31v.93c0 .85-.5 1.62-1.27 1.96ZM10.2 11.79c.26.18.57.29.91.3l.09 1.45c.05.41.17.8.34 1.16-.8-.33-1.34-1.11-1.34-1.99v-.92Z"/><path fill="#533566" d="M6 16.92S2 22 2 30h3l11-3 11 3h3c0-8.01-4-13.08-4-13.08H6Z"/><path fill="#6B438B" d="M16 17c-2.76 0-5.31-.6-7.23 1.19v11.82h14.46V18.16C21.31 16.39 18.74 17 16 17Z"/><path fill="#C3EF3C" d="M15.56 21.32 12 16.01h8l-3.53 5.32c-.22.32-.69.32-.91-.01Z"/><path fill="#8D65C5" d="M14 16.589c0 1.325.889 2.161 1.995 2.161 1.107 0 1.996-.836 2.005-2.161V15h-4v1.589ZM5.889 22.62l-.033.08A16.307 16.307 0 0 0 5 27.899V30h4V18c-1.41 1.239-2.504 2.812-3.111 4.62ZM27 27.934a16.384 16.384 0 0 0-.835-5.256A10.706 10.706 0 0 0 23 18v12h3.989l.01-2.066Z"/><path fill="#F92F60" d="M6 16h8v.728c0 2.032-1.222 3.858-3.06 4.587a2.727 2.727 0 0 1-3.337-1.17l-2.046-3.406c-.179-.35.066-.78.443-.739ZM25.977 16H18v.728c0 2.032 1.222 3.858 3.06 4.587 1.231.482 2.642 0 3.337-1.17l2.046-3.406c.18-.35-.089-.78-.466-.739Z"/><path fill="#E4B29A" d="M12.75 10.625a1.625 1.625 0 1 1-3.25 0 1.625 1.625 0 0 1 3.25 0ZM22.5 10.625a1.625 1.625 0 1 1-3.25 0 1.625 1.625 0 0 1 3.25 0Z"/><path fill="#EEBFAA" d="M17.102 3.2h-2.228c-2.5 0-4.386 2.07-4.094 4.64l.373 5.7c.262 1.94 1.926 3.38 3.902 3.38h1.896c1.967 0 3.64-1.45 3.903-3.38l.363-5.7c.312-2.46-1.614-4.64-4.114-4.64Z"/><path fill="#FFF9BA" d="M22.13 5.24c-.3-.51-.75-.87-1.27-1.05-.56-.19-1.05-.56-1.36-1.06a2.327 2.327 0 0 0-2.92-.94c-.38.16-.82.16-1.2 0-.28-.12-.59-.19-.92-.19-.83 0-1.57.44-1.98 1.09-.33.51-.81.9-1.39 1.1a2.354 2.354 0 0 0-1.16 3.55c.18.26.28.56.28.87v.5c.2-.14.44-.24.69-.28V8.01c0-1.85 1.5-3.35 3.35-3.35h1.28c.27 0 .52.17.62.42.4.87 1.27 1.43 2.22 1.43h1.4c.77.03 1.37.66 1.39 1.42l-.06.91c.01 0 .02 0 .03.01h.02c.22.05.42.14.6.27v-.51c0-.31.09-.61.27-.87.51-.72.58-1.69.11-2.5Z"/><path fill="#533566" d="M15.34 8.6c.15.22.38.4.66.4s.54-.18.68-.4c.24-.36.6-.64 1.04-.71l5.32-1.58c.33-.1.6.27.41.56l-3.43 5.14-.47.69c-.28.41-.87.44-1.19.06 0 0-1.74-1.94-1.86-2.26 0 0-.218-.506-.5-.5-.276.005-.5.5-.5.5-.12.32-1.84 2.26-1.84 2.26-.32.38-.91.35-1.19-.06l-.47-.69-3.43-5.14c-.19-.29.08-.66.41-.56l5.32 1.58c.44.07.8.35 1.04.71Z"/><path fill="#D19479" d="m15.643 10.18-.494 1.68c-.104.34.143.69.485.69h.732c.342 0 .59-.35.485-.69l-.494-1.68c-.105-.37-.6-.37-.713 0Z"/><path fill="#990838" d="M16.94 13.404a2.448 2.448 0 0 1-1.067.194c-.116-.01-.169.136-.074.194.402.233.91.282 1.375.088a1.34 1.34 0 0 0 .824-1.01c.021-.107-.137-.165-.2-.078a2.348 2.348 0 0 1-.857.612Z"/><path fill="#F92F60" d="M16.125 25.75a1.625 1.625 0 1 0 0-3.25 1.625 1.625 0 0 0 0 3.25Z"/><path fill="#F7A7B8" d="M17.052 23.302c.22.3.2.69-.05.87-.25.18-.63.09-.85-.21-.22-.3-.2-.69.05-.87.25-.18.63-.09.85.21Z"/><path fill="#8D65C5" d="M7 16h1c0-.278-.215-.5-.495-.5A.5.5 0 0 0 7 16ZM9.5 15.5c-.278 0-.5.222-.5.5h1c0-.278-.222-.5-.5-.5ZM10 17c0-.278.222-.5.5-.5s.5.222.5.5h-1ZM8 17h1c0-.278-.215-.5-.495-.5A.5.5 0 0 0 8 17ZM23 16h-1c0-.278.222-.5.5-.5s.5.222.5.5ZM24.5 15.5c-.278 0-.5.222-.5.5h1c0-.278-.222-.5-.5-.5ZM23 17c0-.278.222-.5.5-.5s.5.222.5.5h-1ZM21 17h1c0-.278-.222-.5-.5-.5s-.5.222-.5.5Z"/><path fill="#C3EF3C" d="M14.59 9.65c-.24.41-.75.63-1.24.48a1.08 1.08 0 0 1-.77-1.14c.01-.11.12-.18.23-.15l1.66.5c.13.04.19.19.12.31ZM17.32 9.65c.24.41.75.63 1.24.48.51-.15.82-.64.77-1.14-.01-.11-.12-.18-.23-.15l-1.66.5c-.13.04-.19.19-.12.31Z"/></svg>
